!!!OPR: Shout-out to My Friends
!!!ODE: Dedicated to My Mom
!! First Score
!!!OMV: 1
!!!OTL: On Counterpoint
!!!COM: Alex
**kern	**kern	**kern	**kern	**kern	**kern
*Ibass	*Ibass	*Itenor	*Icalto	*Icalto	*Icant
!Bassus 2	!Bassus 1	!Tenor	!Altus 2	!Altus 1	!Cantus
*clefF4	*clefF4	*clefGv2	*clefG2	*clefG2	*clefG2
*k[]	*k[]	*k[]	*k[]	*k[]	*k[]
*G:mix	*G:mix	*G:mix	*G:mix	*G:mix	*G:mix
*M4/2	*M4/2	*M4/2	*M4/2	*M4/2	*M4/2
=1	=1	=1	=1	=1	=1
0r	0r	0r	0d	1r	0r
.	.	.	.	[1d	.
=2	=2	=2	=2	=2	=2
0r	0r	0G	2.G	1d]	0g
.	.	.	4A	.	.
.	.	.	4B	2G	.
.	.	.	4c	.	.
.	.	.	4d	4g	.
.	.	.	4B	4f	.
=3	=3	=3	=3	=3	=3
0r	0r	2.C	4c	4e	0g
.	.	.	4d	4d	.
.	.	.	1e	1c	.
.	.	4D	.	.	.
.	.	4E	.	.	.
.	.	4F	.	.	.
.	.	4G	2d	2B	.
.	.	4E	.	.	.
==	==	==	==	==	==
*-	*-	*-	*-	*-	*-
!! Second Score
!!!OMV: 2
!!!OTL: On the Effects of Musical Education on Musical Perception
!!!COM: Sarah
**kern	**kern	**kern	**kern	**kern	**kern
*Ibass	*Ibass	*Itenor	*Icalto	*Icalto	*Icant
!Bassus 2	!Bassus 1	!Tenor	!Altus 2	!Altus 1	!Cantus
*clefF4	*clefF4	*clefGv2	*clefG2	*clefG2	*clefG2
*k[]	*k[]	*k[]	*k[]	*k[]	*k[]
*G:mix	*G:mix	*G:mix	*G:mix	*G:mix	*G:mix
*M3/2	*M3/2	*M3/2	*M3/2	*M3/2	*M3/2
=85	=85	=85	=85	=85	=85
1r	1r	1r	2d	1r	1r
.	.	.	2d	.	.
2r	2r	2r	2e	2r	2r
=86	=86	=86	=86	=86	=86
1r	2D	1r	1f	1r	1r
.	2D	.	.	.	.
2r	2E	2r	2e	2r	2r
=87	=87	=87	=87	=87	=87
1r	1F	1r	2c	1r	2a
.	.	.	1d	.	2a
2r	2G	2r	.	2r	2b
==	==	==	==	==	==
*-	*-	*-	*-	*-	*-
!! Third Score
!!!OMV: 3
!!!OTL: On the Clarinet, Brahms, Perception Research, and Being Weird
!!!COM: Emerald
**kern	**kern	**kern	**kern	**kern	**kern
*Ibass	*Ibass	*Itenor	*Icalto	*Icalto	*Icant
!Bassus 2	!Bassus 1	!Tenor	!Altus 2	!Altus 1	!Cantus
*clefF4	*clefF4	*clefGv2	*clefG2	*clefG2	*clefG2
*k[]	*k[]	*k[]	*k[]	*k[]	*k[]
*G:mix	*G:mix	*G:mix	*G:mix	*G:mix	*G:mix
*M4/2	*M4/2	*M4/2	*M4/2	*M4/2	*M4/2
=1	=1	=1	=1	=1	=1
0r	0r	0r	0d	1r	0r
.	.	.	.	[1d	.
=2	=2	=2	=2	=2	=2
0r	0r	0G	2.G	1d]	0g
.	.	.	4A	.	.
.	.	.	4B	2G	.
.	.	.	4c	.	.
.	.	.	4d	4g	.
.	.	.	4B	4f	.
=3	=3	=3	=3	=3	=3
0r	0r	2.C	4c	4e	0g
.	.	.	4d	4d	.
.	.	.	1e	1c	.
.	.	4D	.	.	.
.	.	4E	.	.	.
.	.	4F	.	.	.
.	.	4G	2d	2B	.
.	.	4E	.	.	.
==	==	==	==	==	==
*-	*-	*-	*-	*-	*-
!!!ODT: 2013
!!!OPC: Verdun, Québec
!!!YEM: Copyright 2013 Christopher Antila
!!!YEN: Canada
!!!OCY: Canada
!! I calculated this with "sha512sum," because that's how I roll.
!!!VTS: af391bb7f085c060984e8624b92d73589c7ed13ebdcb23314ec1c02d76771ed10f233a31dfd256cd112273ee2caa1f71fb4689bef691c81ebf78af8516ccc215
